X: 19646
T: Jean's
R: reel
M: 4/4
K: Fmajor
FFFG AFAc|fAAA dAcA|G2AF GFDF|GBAG FDCD|
FFFG AFAc|fgaf gafd|c2Ac fdcA|GCEG F3:|
e|fAAA _AAAA|fAAA fAfg|eccc gcec|fefg agfg|
agfe fedc|defc dcAd|c2Ac fdcA|GCEG F3:|

